X: 36270
T: Seamus Begley's
R: jig
M: 6/8
K: Dmajor
|:DEF GFG|Add cAG|FAF GEC|DFD ECA,|
DEF GFG|Add cAG|FAF GEC|1 EDD D2 C:|2 EDD D2 A||
|:ded ded|cAA ABc|def e2 d|cAc BAG|
FAF GFG|Add cAG|FAF GEC|1 EDD DFA:|2 EDD D2 C||

